X: 2018
T: Ashes
R: jig
M: 6/8
K: Gminor
|:D|B,DD A,DD|G,DD DCD|B,DD A,DD|DCB, G,2D|
B,DD A,DD|G,DD DCD|FDF DCB,|A,CB, G,2:|
D|GDD BDD|GDG BAG|FCC ACC|FCF AGF|
GDD BDD|GDG BAG|FDF DCB,|A,CB, G,2D|
GDD BDD|GDG BAG|FCC ACC|cAc BAG|
BDD ADD|GDD BAG|FDF DCB,|A,CB, G,G,G,||

